static/icons/instagram.svg

<svg xmlns="http://www.w3.org/2000/svg" viewBox="0 0 43 33" xml:space="preserve"><path d="M17 8.6c-4.5 0-8.2 3.7-8.2 8.2S12.4 25 17 25c4.5 0 8.2-3.7 8.2-8.2S21.5 8.6 17 8.6zm0 13.6c-2.9 0-5.3-2.4-5.3-5.3s2.4-5.3 5.3-5.3 5.3 2.4 5.3 5.3-2.4 5.3-5.3 5.3zM27.4 8.3c0 1.1-.9 1.9-1.9 1.9-1.1 0-1.9-.9-1.9-1.9 0-1.1.9-1.9 1.9-1.9 1.1 0 1.9.8 1.9 1.9zm5.5 1.9c-.1-2.6-.7-4.8-2.6-6.7C28.4 1.6 26.2 1 23.6.9 20.9.8 13 .8 10.4 1c-2.6.1-4.9.7-6.7 2.5-1.9 1.9-2.5 4.1-2.6 6.7-.1 2.6-.1 10.6 0 13.2.1 2.6.7 4.8 2.6 6.7 1.9 1.9 4.1 2.5 6.7 2.6 2.6.1 10.6.1 13.2 0 2.6-.1 4.8-.7 6.7-2.6 1.9-1.9 2.5-4.1 2.6-6.7.1-2.6.1-10.5 0-13.2zm-3.5 16.1c-.6 1.4-1.6 2.5-3 3-2.1.8-7.1.7-9.4.7-2.3 0-7.3.2-9.4-.6-1.4-.6-2.5-1.6-3-3-.8-2.1-.6-7.1-.6-9.4s-.3-7.5.5-9.6c.6-1.4 1.6-2.5 3-3 2.1-.8 7.1-.6 9.4-.6 2.3 0 7.3-.2 9.4.6 1.4.6 2.5 1.6 3 3 .8 2.1.6 7.1.6 9.4s.4 7.4-.5 9.5z"/></svg>

<svg xmlns="http://www.w3.org/2000/svg" xmlns:xlink="http://www.w3.org/1999/xlink" id="instagram" x="0" y="0" enable-background="new 0 0 43 33" version="1.1" viewBox="0 0 43 33" xml:space="preserve"><path d="M17,8.6c-4.5,0-8.2,3.7-8.2,8.2S12.4,25,17,25c4.5,0,8.2-3.7,8.2-8.2S21.5,8.6,17,8.6z M17,22.2c-2.9,0-5.3-2.4-5.3-5.3	s2.4-5.3,5.3-5.3c2.9,0,5.3,2.4,5.3,5.3S19.9,22.2,17,22.2z M27.4,8.3c0,1.1-0.9,1.9-1.9,1.9c-1.1,0-1.9-0.9-1.9-1.9	c0-1.1,0.9-1.9,1.9-1.9C26.6,6.4,27.4,7.2,27.4,8.3z M32.9,10.2c-0.1-2.6-0.7-4.8-2.6-6.7c-1.9-1.9-4.1-2.5-6.7-2.6	C20.9,0.8,13,0.8,10.4,1C7.8,1.1,5.5,1.7,3.7,3.5c-1.9,1.9-2.5,4.1-2.6,6.7c-0.1,2.6-0.1,10.6,0,13.2c0.1,2.6,0.7,4.8,2.6,6.7	c1.9,1.9,4.1,2.5,6.7,2.6c2.6,0.1,10.6,0.1,13.2,0c2.6-0.1,4.8-0.7,6.7-2.6c1.9-1.9,2.5-4.1,2.6-6.7C33,20.8,33,12.9,32.9,10.2z M29.4,26.3c-0.6,1.4-1.6,2.5-3,3C24.3,30.1,19.3,30,17,30c-2.3,0-7.3,0.2-9.4-0.6c-1.4-0.6-2.5-1.6-3-3c-0.8-2.1-0.6-7.1-0.6-9.4	S3.7,9.5,4.5,7.4c0.6-1.4,1.6-2.5,3-3c2.1-0.8,7.1-0.6,9.4-0.6c2.3,0,7.3-0.2,9.4,0.6c1.4,0.6,2.5,1.6,3,3c0.8,2.1,0.6,7.1,0.6,9.4	S30.3,24.2,29.4,26.3z"/></svg>
